svg/set/XLN/80.svg

<?xml version="1.0" encoding="UTF-8" standalone="no"?>
<svg
   width="275.09976pt"
   height="275.09555pt"
   viewBox="0 0 275.09976 275.09555"
   version="1.1"
   id="svg2"
   xmlns="http://www.w3.org/2000/svg"
   xmlns:svg="http://www.w3.org/2000/svg">
  <defs
     id="defs2" />
  <g
     id="g1"
     transform="translate(-11.950287,-11.948607)">
    <path
       fill="#808080"
       d="m 137.13,21.23 c 0.46,-4.55 4.14,-8.57 8.73,-9.1 2.74,-0.23 5.52,-0.28 8.25,0.08 4.32,0.74 7.73,4.56 8.21,8.88 1.97,13.6 3.89,27.2 5.84,40.8 10.03,2.15 19.69,5.97 28.46,11.3 8.16,-2.39 16.37,-4.63 24.46,-7.21 6.82,-1.79 13.85,5.11 12.19,11.96 -2.27,8.29 -4.82,16.5 -7.18,24.76 5.33,8.78 9.15,18.45 11.28,28.5 13.49,2 26.98,3.94 40.47,5.95 4.51,0.47 8.48,4.13 9.02,8.68 0.24,2.74 0.29,5.52 -0.07,8.26 -0.73,4.34 -4.56,7.75 -8.9,8.24 -13.55,1.96 -27.11,3.87 -40.66,5.81 -2.2,10.03 -6.09,19.65 -11.46,28.4 2.41,8.18 4.76,16.39 7.26,24.55 1.74,6.81 -5.08,13.88 -11.95,12.35 -8.52,-2.23 -16.91,-4.93 -25.38,-7.36 -8.6,5.09 -18.03,8.73 -27.8,10.79 -2.03,13.74 -3.94,27.49 -6.01,41.22 -0.54,4.85 -4.93,8.86 -9.82,8.89 -3.52,0.03 -7.38,0.48 -10.49,-1.51 -2.74,-1.6 -4.42,-4.57 -4.83,-7.67 -2,-13.71 -3.89,-27.44 -5.89,-41.15 -9.59,-2.14 -18.84,-5.8 -27.26,-10.87 -8.56,2.42 -17.05,5.1 -25.64,7.41 -6.92,1.83 -14.01,-5.25 -12.24,-12.17 2.29,-8.65 5.04,-17.17 7.48,-25.77 -5,-8.45 -8.62,-17.7 -10.7,-27.29 -13.88,-2.06 -27.77,-3.98 -41.64,-6.07 -4.82,-0.56 -8.81,-4.94 -8.84,-9.81 -0.04,-3.54 -0.49,-7.43 1.54,-10.55 1.65,-2.8 4.73,-4.44 7.9,-4.82 13.67,-1.97 27.35,-3.88 41.03,-5.86 2.05,-9.63 5.7,-18.9 10.7,-27.38 -2.4,-8.52 -5.06,-16.97 -7.3,-25.53 -1.75,-6.89 5.18,-13.98 12.1,-12.24 8.32,2.7 16.76,5.02 25.14,7.5 8.65,-5.24 18.14,-9.04 28.02,-11.21 2,-13.58 3.96,-27.18 5.98,-40.76"
       id="path1" />
  </g>
  <g
     id="g2"
     transform="translate(-11.950287,-11.948607)">
    <path
       d="m 147.39,22.31 c 1.56,0 3.13,0 4.69,0 2.32,16.18 4.63,32.37 6.94,48.55 12.85,1.52 25.27,6.21 35.92,13.56 9.38,-2.72 18.77,-5.4 28.15,-8.17 -2.78,9.36 -5.49,18.73 -8.24,28.09 7.34,10.67 12.04,23.11 13.55,35.98 16.09,2.36 32.19,4.72 48.29,7.08 0,1.56 -0.01,3.12 0,4.68 -16.13,2.32 -32.26,4.6 -48.38,6.92 -1.59,12.84 -6.37,25.23 -13.79,35.82 2.78,9.51 5.55,19.03 8.37,28.53 -9.59,-2.85 -19.18,-5.66 -28.77,-8.49 -10.53,7.07 -22.74,11.57 -35.34,13.01 -2.37,16.27 -4.72,32.55 -7.08,48.82 -1.56,0 -3.13,0 -4.68,0.01 -2.35,-16.32 -4.66,-32.63 -6.99,-48.94 -12.44,-1.6 -24.46,-6.15 -34.83,-13.21 -9.82,2.86 -19.63,5.75 -29.45,8.61 2.88,-9.84 5.8,-19.66 8.68,-29.49 -7,-10.39 -11.47,-22.42 -13,-34.85 -16.37,-2.38 -32.75,-4.75 -49.12,-7.12 0,-1.56 0,-3.13 0,-4.69 16.37,-2.36 32.75,-4.64 49.12,-7.03 C 72.92,127.54 77.4,115.5 84.39,105.1 81.6,95.39 78.78,85.69 75.97,76 c 9.6,2.83 19.21,5.63 28.83,8.44 10.53,-7.3 22.81,-11.89 35.5,-13.57 2.32,-16.19 4.74,-32.37 7.09,-48.56 m -11.86,67.25 c -8.58,2.07 -16.72,6 -23.64,11.48 -2.08,1.34 -2.14,4.67 -0.02,6.01 6.28,4.78 12.65,9.46 19,14.16 2.02,1.97 5.78,0.65 6.07,-2.15 1.35,-8.34 2.5,-16.71 3.71,-25.07 0.88,-2.95 -2.36,-5.62 -5.12,-4.43 m 24.92,0 c -1.62,0.75 -2.29,2.66 -1.91,4.34 1.18,8.37 2.3,16.76 3.62,25.1 0.23,2.85 4.04,4.2 6.07,2.21 6.37,-4.65 12.7,-9.34 19.03,-14.04 2.18,-1.21 2.75,-4.53 0.63,-6.08 -7.47,-5.96 -16.44,-10.24 -25.87,-11.91 -0.39,0.09 -1.17,0.28 -1.57,0.38 m -57.96,21.11 c -6.32,6.63 -10.09,15.49 -12.39,24.29 -1.26,2.57 0.78,6.14 3.8,5.57 8.37,-1.12 16.74,-2.29 25.09,-3.58 2.56,-0.18 4.18,-3.48 2.61,-5.55 -4.55,-6.44 -9.34,-12.7 -14,-19.06 -1.04,-1.67 -3.28,-2.77 -5.11,-1.67 m 90.87,-0.28 c -4.91,5.46 -8.84,11.77 -13.42,17.53 -1.33,2.05 -3.95,4.17 -2.8,6.89 0.81,2.03 3.17,2.26 5.04,2.54 7.96,1.06 15.88,2.43 23.85,3.41 2.47,0.44 4.67,-2.25 3.9,-4.6 -1.92,-8.94 -5.95,-17.44 -11.6,-24.62 -1.06,-1.56 -3.34,-2.21 -4.97,-1.15 M 91.32,158.97 c -1.28,0.89 -1.84,2.61 -1.36,4.09 1.91,8.63 5.8,16.82 11.23,23.79 1.45,2.34 5.04,2.05 6.34,-0.3 4.69,-6.33 9.5,-12.59 14.07,-19.01 1.73,-2.31 -0.33,-5.64 -3.06,-5.66 -8.51,-1.18 -16.99,-2.67 -25.53,-3.57 -0.42,0.16 -1.26,0.49 -1.69,0.66 m 105.24,0.77 c -5.54,0.85 -11.12,1.47 -16.65,2.43 -2.86,0.23 -4.2,4.06 -2.2,6.1 4.66,6.38 9.38,12.73 14.11,19.05 1.21,2.11 4.48,2.54 5.97,0.5 5.79,-7.04 9.82,-15.5 11.95,-24.36 0.75,-2.06 -0.51,-4.6 -2.74,-4.97 -3.51,-0.02 -6.96,0.84 -10.44,1.25 m -65.2,17.59 c -6.41,4.52 -12.65,9.31 -18.97,13.97 -2.15,1.16 -2.88,4.38 -0.87,6.02 7.06,5.8 15.57,9.86 24.47,11.91 2.48,0.82 5.14,-1.68 4.55,-4.21 -1.17,-8.35 -2.29,-16.72 -3.59,-25.05 -0.16,-2.57 -3.5,-4.32 -5.59,-2.64 m 32,0.23 c -1.47,1.06 -1.45,3.02 -1.77,4.62 -1.02,7.64 -2.26,15.25 -3.26,22.89 -0.71,2.62 2.01,5.27 4.6,4.37 8.8,-1.89 17.18,-5.78 24.31,-11.27 2.28,-1.38 2.17,-4.93 -0.11,-6.25 -6.3,-4.75 -12.63,-9.45 -18.97,-14.13 -1.32,-1.13 -3.43,-1.44 -4.8,-0.23 z"
       id="path2" />
  </g>
</svg>

<?xml version="1.0" encoding="UTF-8"?>
<svg xmlns="http://www.w3.org/2000/svg" width="300pt" height="300pt" viewBox="0 0 300 300" version="1.1">
  <g>
    <path fill="#808080" d="m 137.13,21.23 c 0.46,-4.55 4.14,-8.57 8.73,-9.1 2.74,-0.23 5.52,-0.28 8.25,0.08 4.32,0.74 7.73,4.56 8.21,8.88 1.97,13.6 3.89,27.2 5.84,40.8 10.03,2.15 19.69,5.97 28.46,11.3 8.16,-2.39 16.37,-4.63 24.46,-7.21 6.82,-1.79 13.85,5.11 12.19,11.96 -2.27,8.29 -4.82,16.5 -7.18,24.76 5.33,8.78 9.15,18.45 11.28,28.5 13.49,2 26.98,3.94 40.47,5.95 4.51,0.47 8.48,4.13 9.02,8.68 0.24,2.74 0.29,5.52 -0.07,8.26 -0.73,4.34 -4.56,7.75 -8.9,8.24 -13.55,1.96 -27.11,3.87 -40.66,5.81 -2.2,10.03 -6.09,19.65 -11.46,28.4 2.41,8.18 4.76,16.39 7.26,24.55 1.74,6.81 -5.08,13.88 -11.95,12.35 -8.52,-2.23 -16.91,-4.93 -25.38,-7.36 -8.6,5.09 -18.03,8.73 -27.8,10.79 -2.03,13.74 -3.94,27.49 -6.01,41.22 -0.54,4.85 -4.93,8.86 -9.82,8.89 -3.52,0.03 -7.38,0.48 -10.49,-1.51 -2.74,-1.6 -4.42,-4.57 -4.83,-7.67 -2,-13.71 -3.89,-27.44 -5.89,-41.15 -9.59,-2.14 -18.84,-5.8 -27.26,-10.87 -8.56,2.42 -17.05,5.1 -25.64,7.41 -6.92,1.83 -14.01,-5.25 -12.24,-12.17 2.29,-8.65 5.04,-17.17 7.48,-25.77 -5,-8.45 -8.62,-17.7 -10.7,-27.29 -13.88,-2.06 -27.77,-3.98 -41.64,-6.07 -4.82,-0.56 -8.81,-4.94 -8.84,-9.81 -0.04,-3.54 -0.49,-7.43 1.54,-10.55 1.65,-2.8 4.73,-4.44 7.9,-4.82 13.67,-1.97 27.35,-3.88 41.03,-5.86 2.05,-9.63 5.7,-18.9 10.7,-27.38 -2.4,-8.52 -5.06,-16.97 -7.3,-25.53 -1.75,-6.89 5.18,-13.98 12.1,-12.24 8.32,2.7 16.76,5.02 25.14,7.5 8.65,-5.24 18.14,-9.04 28.02,-11.21 2,-13.58 3.96,-27.18 5.98,-40.76"/>
  </g>
  <g>
    <path d=" M 147.39 22.31 C 148.95 22.31 150.52 22.31 152.08 22.31 C 154.40 38.49 156.71 54.68 159.02 70.86 C 171.87 72.38 184.29 77.07 194.94 84.42 C 204.32 81.70 213.71 79.02 223.09 76.25 C 220.31 85.61 217.60 94.98 214.85 104.34 C 222.19 115.01 226.89 127.45 228.40 140.32 C 244.49 142.68 260.59 145.04 276.69 147.40 C 276.69 148.96 276.68 150.52 276.69 152.08 C 260.56 154.40 244.43 156.68 228.31 159.00 C 226.72 171.84 221.94 184.23 214.52 194.82 C 217.30 204.33 220.07 213.85 222.89 223.35 C 213.30 220.50 203.71 217.69 194.12 214.86 C 183.59 221.93 171.38 226.43 158.78 227.87 C 156.41 244.14 154.06 260.42 151.70 276.69 C 150.14 276.69 148.57 276.69 147.02 276.70 C 144.67 260.38 142.36 244.07 140.03 227.76 C 127.59 226.16 115.57 221.61 105.20 214.55 C 95.38 217.41 85.57 220.30 75.75 223.16 C 78.63 213.32 81.55 203.50 84.43 193.67 C 77.43 183.28 72.96 171.25 71.43 158.82 C 55.06 156.44 38.68 154.07 22.31 151.70 C 22.31 150.14 22.31 148.57 22.31 147.01 C 38.68 144.65 55.06 142.37 71.43 139.98 C 72.92 127.54 77.40 115.50 84.39 105.10 C 81.60 95.39 78.78 85.69 75.97 76.00 C 85.57 78.83 95.18 81.63 104.80 84.44 C 115.33 77.14 127.61 72.55 140.30 70.87 C 142.62 54.68 145.04 38.50 147.39 22.31 M 135.53 89.56 C 126.95 91.63 118.81 95.56 111.89 101.04 C 109.81 102.38 109.75 105.71 111.87 107.05 C 118.15 111.83 124.52 116.51 130.87 121.21 C 132.89 123.18 136.65 121.86 136.94 119.06 C 138.29 110.72 139.44 102.35 140.65 93.99 C 141.53 91.04 138.29 88.37 135.53 89.56 M 160.45 89.56 C 158.83 90.31 158.16 92.22 158.54 93.90 C 159.72 102.27 160.84 110.66 162.16 119.00 C 162.39 121.85 166.20 123.20 168.23 121.21 C 174.60 116.56 180.93 111.87 187.26 107.17 C 189.44 105.96 190.01 102.64 187.89 101.09 C 180.42 95.13 171.45 90.85 162.02 89.18 C 161.63 89.27 160.85 89.46 160.45 89.56 M 102.49 110.67 C 96.17 117.30 92.40 126.16 90.10 134.96 C 88.84 137.53 90.88 141.10 93.90 140.53 C 102.27 139.41 110.64 138.24 118.99 136.95 C 121.55 136.77 123.17 133.47 121.60 131.40 C 117.05 124.96 112.26 118.70 107.60 112.34 C 106.56 110.67 104.32 109.57 102.49 110.67 M 193.36 110.39 C 188.45 115.85 184.52 122.16 179.94 127.92 C 178.61 129.97 175.99 132.09 177.14 134.81 C 177.95 136.84 180.31 137.07 182.18 137.35 C 190.14 138.41 198.06 139.78 206.03 140.76 C 208.50 141.20 210.70 138.51 209.93 136.16 C 208.01 127.22 203.98 118.72 198.33 111.54 C 197.27 109.98 194.99 109.33 193.36 110.39 M 91.32 158.97 C 90.04 159.86 89.48 161.58 89.96 163.06 C 91.87 171.69 95.76 179.88 101.19 186.85 C 102.64 189.19 106.23 188.90 107.53 186.55 C 112.22 180.22 117.03 173.96 121.60 167.54 C 123.33 165.23 121.27 161.90 118.54 161.88 C 110.03 160.70 101.55 159.21 93.01 158.31 C 92.59 158.47 91.75 158.80 91.32 158.97 M 196.56 159.74 C 191.02 160.59 185.44 161.21 179.91 162.17 C 177.05 162.40 175.71 166.23 177.71 168.27 C 182.37 174.65 187.09 181.00 191.82 187.32 C 193.03 189.43 196.30 189.86 197.79 187.82 C 203.58 180.78 207.61 172.32 209.74 163.46 C 210.49 161.40 209.23 158.86 207.00 158.49 C 203.49 158.47 200.04 159.33 196.56 159.74 M 131.36 177.33 C 124.95 181.85 118.71 186.64 112.39 191.30 C 110.24 192.46 109.51 195.68 111.52 197.32 C 118.58 203.12 127.09 207.18 135.99 209.23 C 138.47 210.05 141.13 207.55 140.54 205.02 C 139.37 196.67 138.25 188.30 136.95 179.97 C 136.79 177.40 133.45 175.65 131.36 177.33 M 163.36 177.56 C 161.89 178.62 161.91 180.58 161.59 182.18 C 160.57 189.82 159.33 197.43 158.33 205.07 C 157.62 207.69 160.34 210.34 162.93 209.44 C 171.73 207.55 180.11 203.66 187.24 198.17 C 189.52 196.79 189.41 193.24 187.13 191.92 C 180.83 187.17 174.50 182.47 168.16 177.79 C 166.84 176.66 164.73 176.35 163.36 177.56 Z"/>
  </g>
</svg>
